X:156
T:The Derry Reel                                                                                    
K:A                                                                                                 
M:4/4                                                                                               
L:1/8                                                                                               
c3 B ABcA|B2 cB AFEF|ABce a2 ge|faec BcAB|                                                          
c3 B ABcA|B2 cB AFEF|1 ABce faed|cddB A2 AB :|2 ABce fece|fege a2 ag |                              
|: f2 fc fgaf|geBe ffge|f2 fc fgaf|gfeg f2 fg|                                                      
aecB ABcA|BBcA BAFA|1 ABce fece|fege a2 ga :|2 ABce faec BccB A2 AB |>|
